X: 1816
T: The Return From Fingal
M:2/4
L:1/16
B:O'Neill's 1816
Z:"Transcribed by Bob Safranek, rjs@gsp.org"
K:Em
   B2GF EFGA | B2GF E4   | AGFA d2A2 | B2A2 B^c^de  |
   B2GF EFGA | B2GF E4   | AGFA d2A2 | F2E2 E2 z2  :|
|: f2e2 e2dc | B2A2 d2A2 | B2A2 d2A2 | B2A2 B^c^de  |
   f2e2 e2dc | B2A2 d4   | AGFA d2A2 | F2E2 E2 z2  :|


